X: 16057
T: Green Fields Of America, The
R: reel
M: 4/4
K: Gmajor
|:B|c2ec B2dB|AGAB AGEF|G2EG DEGB|AGAB AGEG|
c2ec B2dB|AGAB AGEF|G2EG DEGB|AGAB G3:|
F|:GABc d2ef|gage dBGB|c2ec B2dB|AGAB AGEF|
[1 G2Bc d2ef|gage dBGB|c2ec B2dB|AGAB GDEF:|
[2 gfed efge|dBGB AGEF|G2EG DEGB|AGAB G3z||

